X:1
T:Nightfall, 11.11.11.5
T:Nightfall, 11.11.11.5
T:Joseph Barnby (1838-1896)
T:Public Domain Courtesy of the Cyber Hymnal™
C:Joseph Barnby (1838-1896)
Z:Public Domain
Z:Courtesy of the Cyber Hymnal™
%%score ( 1 2 ) ( 3 4 )
L:1/8
Q:1/4=115
M:4/4
K:Eb
V:1 treble 
V:2 treble 
V:3 bass 
V:4 bass 
V:1
 [EB]4 [EA]2 E2 | [EG]4 [DF]4 x2 | E2 [EG]2 [EB]2 [Ee]2 | [Ee]4 [A,d]2 [Cc]2 | [FB]4 [Dc]4 | %5
 B6 z2 A2 | [B,G]2 [EG]2 [CB]2 [FA]2 | [EG]4 [DF]4 | [DF]4 [DG]2 [DA]2 | [Ec]4 [EB]4 | %10
 [DG]3 [DG] [G=A]2 [G=B]2 | [Gc]4 [GB]4 | [EA]4 [EG]2 [EF]2 | (G4 z2 F2) x2 | E8 |] %15
V:2
 x6 E2 | x10 | E2 x6 | x8 | x8 | E4 F4 x2 | x8 | x8 | x8 | x8 | x8 | x8 | x8 | E6 D4 | E8 |] %15
V:3
 [E,G,]4 [C,A,]2 [C,A,]2 | B,6 z2 A,2 | [C,G,]2 [C,E,]2 [_D,G,]2 [D,G,]2 | %3
 [C,A,]4 [F,A,]2 [E,A,]2 | [D,A,]4 [B,,A,]4 | [C,G,]4 [D,F,]4 x2 | E,2 [E,B,]2 [A,,C]2 [A,,C]2 | %7
 [B,,B,]4 [B,,B,]4 | [A,B,]4 [A,B,]2 [A,B,]2 | [G,B,]4 [G,B,]4 | [F,=B,]3 [F,B,] [F,C]2 [F,D]2 | %11
 [E,C]4 [E,_D]4 | [A,,C]4 [B,,B,]2 [C,=A,]2 | (B,4 A,4) x2 | [E,G,]8 |] %15
V:4
 x8 | B,,4 B,,4 x2 | x8 | x8 | x8 | x10 | E,2 x6 | x8 | x8 | x8 | x8 | x8 | x8 | B,,8 x2 | x8 |] %15

